assets/logo/wordmark-transparent-dark.svg

<svg xmlns="http://www.w3.org/2000/svg" width="952" height="308" fill="none" viewBox="0 0 952 308"><path fill="#fff" d="M632.251 199.619q-20.556 0-28.286-7.204-2.812-2.635-3.514-7.379-.703-4.92-.703-13.528h6.149q1.58 9.136 7.204 14.758 5.622 5.446 15.636 5.446 17.57 0 17.57-11.947 0-4.567-3.866-7.555-3.689-2.986-11.947-6.676l-9.136-3.865q-11.244-4.92-16.866-10.717-5.623-5.799-5.623-14.056 0-11.068 9.136-17.218 9.312-6.149 24.246-6.149 20.556 0 28.287 7.203 2.81 2.636 3.514 7.379.702 4.744.702 13.529h-6.149q-1.581-9.137-7.203-14.583-5.623-5.622-15.637-5.622-7.556 0-11.244 3.338-3.69 3.163-3.69 8.609 0 4.392 2.987 7.379 3.162 2.81 9.487 5.623l10.542 4.392q13 5.446 18.623 11.069 5.798 5.446 5.798 14.406 0 11.245-10.014 17.394-9.839 5.974-26.003 5.974M560.814 138.125q0-8.96-2.46-13.177-2.46-4.392-9.839-4.392h-1.757v-5.271h21.083q6.325 0 9.664 2.108 3.337 2.11 4.743 7.028 1.406 4.745 1.406 13.704v59.736h-22.84zM526.287 199.615q-12.123 0-18.799-6.501-6.677-6.677-6.677-19.151v-50.776H490.27v-7.906h10.541l19.279-26.392 3.561-4.573v30.965h19.327v7.906h-19.327v51.83q0 9.487 2.284 13.177 2.284 3.514 6.853 3.514 4.919 0 9.838-2.284a53 53 0 0 0 4.041-2.46l2.46 4.92q-2.284 1.932-5.446 3.865-7.38 3.866-17.394 3.866"/><path fill="#ff5906" d="M498.453 110.127V83.585h19.906z"/><path fill="#fff" d="M401.335 138.126q0-8.96-2.459-13.177-2.285-4.392-9.663-4.392h-1.757v-5.271h17.393q5.975 0 9.312 1.581 3.514 1.406 5.447 4.919 8.96-8.257 25.651-8.257t24.948 7.906q8.433 7.73 8.434 24.421v52.006H455.8v-52.181q0-12.123-4.568-17.745-4.392-5.623-12.123-5.623-5.446 0-9.663 1.582-4.041 1.405-6.5 3.865l.527 2.46q.703 2.107.703 6.852v60.79h-22.841zM346.554 199.619q-12.123 0-21.259-5.623-9.137-5.622-14.231-15.285-4.92-9.839-4.92-22.137 0-13.704 4.92-23.368 5.094-9.663 13.88-14.582 8.784-5.095 19.853-5.095 10.893 0 19.678 4.392t13.879 12.474q5.095 7.906 5.095 18.273 0 3.337-.351 7.554l-.351 3.514h-52.884q0 16.69 5.095 24.422 5.096 7.554 14.231 7.554 8.433 0 14.056-3.689 5.798-3.866 11.068-10.893l5.447 4.041q-5.095 7.906-12.826 13.177-7.555 5.271-20.38 5.271m13.177-47.789q0-16.515-3.865-23.367-3.866-7.028-11.069-7.028-6.677 0-10.893 7.203-4.041 7.029-4.041 23.192zM254.943 233q-20.03 0-31.625-6.5-11.42-6.325-11.42-20.732 0-8.785 7.027-14.583 7.028-5.797 16.691-8.257-7.906-2.46-7.906-9.663 0-5.974 7.028-8.785-7.555-2.635-12.65-9.136-4.92-6.5-4.92-14.407 0-14.407 10.191-20.908 10.365-6.5 27.584-6.5h36.895v4.744l-15.812 2.108q7.379 2.811 11.947 8.609 4.743 5.797 4.744 11.947 0 14.407-9.839 20.732-9.663 6.325-27.935 6.325-9.137 0-13.353 1.054-4.217.879-4.217 4.217 0 2.811 4.217 3.689t13.353 1.054q18.974.352 30.922 7.555 12.122 7.027 12.122 20.205 0 14.407-11.595 20.732-11.421 6.5-31.449 6.5m0-72.034q14.055 0 14.055-20.029 0-9.839-3.865-15.11t-10.19-5.27q-6.501 0-10.366 5.095-3.69 5.095-3.69 15.285 0 20.03 14.056 20.029m0 64.128q9.135 0 14.231-4.919 5.095-4.744 5.095-14.407 0-7.73-4.92-12.826-4.743-5.271-13.001-6.852l-8.258-.878q-6.149 2.635-9.311 7.555-3.163 4.919-3.163 13.001 0 9.663 5.095 14.407 5.096 4.919 14.232 4.919M556.35 93.326q3.513 3.866 9.839 3.866 4.217 0 6.852-2.636 2.811-2.636 2.811-7.203 0-5.621-3.514-9.488Q568.999 74 562.675 74q-4.217 0-7.028 2.635-2.635 2.635-2.635 7.204 0 5.622 3.338 9.487"/><path fill="#fff" d="M162.243 123.145q-3.423-8.28-7.308-11.237-3.789-3.187-10.608-.368l-1.623.672-2.014-4.871 16.074-6.646c3.68-1.521 5.65-2.096 9.209-2.096 7.747-.09 13.941 7.384 16.975 14.845l37.608 85.145h-15.514a16.9 16.9 0 0 1-15.589-10.377z"/><path fill="#fff" d="M182.52 172.079h-38.251l-11.791 26.172H125l42.421-94.909c5.855 6.259 19.734 58.155 15.099 68.737m-35.231-6.471h32.499l-15.818-37.532z"/><path fill="#ff5906" d="M799.695 197.461v-21.48l-20.032-34.835h7.723l15.124 27.031h1.127l15.124-27.031h7.723l-20.032 34.835v21.48zM732.784 197.461l17.377-56.315h11.907l17.377 56.315h-6.999l-4.345-14.24h-23.973l-4.345 14.24zm13.033-20.354h20.515l-9.654-31.858h-1.127zM690.231 197.461v-56.315h21.56q5.069 0 9.011 2.012 4.022 1.93 6.355 5.551 2.333 3.62 2.333 8.769v1.046q0 5.067-2.413 8.768-2.333 3.62-6.356 5.551t-8.93 1.931h-14.802v22.687zm6.758-28.801h14.078q5.39 0 8.528-2.655 3.137-2.735 3.137-7.642v-.805q0-4.907-3.137-7.562-3.057-2.736-8.528-2.735h-14.078z"/></svg>

<svg width="952" height="308" viewBox="0 0 952 308" fill="none" xmlns="http://www.w3.org/2000/svg">
<path d="M632.251 199.619C618.547 199.619 609.118 197.218 603.965 192.415C602.09 190.658 600.919 188.199 600.451 185.036C599.982 181.756 599.748 177.247 599.748 171.508H605.897C606.951 177.598 609.352 182.518 613.101 186.266C616.849 189.897 622.061 191.712 628.737 191.712C640.45 191.712 646.307 187.73 646.307 179.765C646.307 176.72 645.018 174.202 642.441 172.21C639.982 170.219 635.999 167.994 630.494 165.534L621.358 161.669C613.862 158.389 608.24 154.817 604.492 150.952C600.743 147.086 598.869 142.401 598.869 136.896C598.869 129.517 601.915 123.778 608.005 119.678C614.213 115.579 622.295 113.529 632.251 113.529C645.955 113.529 655.384 115.93 660.538 120.732C662.412 122.489 663.583 124.949 664.052 128.111C664.52 131.274 664.754 135.783 664.754 141.64H658.605C657.551 135.549 655.15 130.688 651.402 127.057C647.654 123.309 642.441 121.435 635.765 121.435C630.728 121.435 626.98 122.548 624.521 124.773C622.061 126.882 620.831 129.751 620.831 133.382C620.831 136.31 621.827 138.77 623.818 140.761C625.926 142.635 629.089 144.509 633.305 146.384L643.847 150.776C652.514 154.407 658.722 158.096 662.47 161.845C666.336 165.476 668.268 170.278 668.268 176.251C668.268 183.748 664.93 189.546 658.254 193.645C651.695 197.627 643.027 199.619 632.251 199.619Z" fill="white"/>
<path d="M560.814 138.125C560.814 132.152 559.994 127.759 558.354 124.948C556.714 122.02 553.435 120.556 548.515 120.556H546.758V115.285H567.841C572.058 115.285 575.279 115.988 577.505 117.393C579.73 118.799 581.311 121.142 582.248 124.421C583.185 127.584 583.654 132.152 583.654 138.125V197.861H560.814V138.125Z" fill="white"/>
<path d="M526.287 199.615C518.205 199.615 511.939 197.448 507.488 193.114C503.037 188.663 500.811 182.279 500.811 173.963V123.187H490.27V115.281H500.811L520.09 88.8894L523.651 84.3159V115.281H542.978V123.187H523.651V175.017C523.651 181.342 524.413 185.734 525.935 188.194C527.458 190.537 529.742 191.708 532.788 191.708C536.067 191.708 539.347 190.947 542.626 189.424C543.915 188.721 545.262 187.901 546.667 186.964L549.127 191.884C547.604 193.172 545.789 194.461 543.681 195.749C538.761 198.326 532.963 199.615 526.287 199.615Z" fill="white"/>
<path d="M498.453 110.127V83.585H518.359L498.453 110.127Z" fill="#FF5906"/>
<path d="M401.335 138.126C401.335 132.152 400.515 127.76 398.876 124.949C397.353 122.021 394.132 120.557 389.213 120.557H387.456V115.286H404.849C408.832 115.286 411.936 115.813 414.161 116.867C416.504 117.804 418.319 119.444 419.608 121.786C425.581 116.281 434.131 113.529 445.259 113.529C456.386 113.529 464.702 116.164 470.207 121.435C475.829 126.589 478.641 134.729 478.641 145.856V197.862H455.8V145.681C455.8 137.599 454.278 131.684 451.232 127.936C448.304 124.188 444.263 122.313 439.109 122.313C435.478 122.313 432.257 122.841 429.446 123.895C426.752 124.832 424.585 126.12 422.946 127.76L423.473 130.22C423.941 131.625 424.176 133.909 424.176 137.072V197.862H401.335V138.126Z" fill="white"/>
<path d="M346.554 199.619C338.472 199.619 331.386 197.745 325.295 193.996C319.204 190.248 314.46 185.153 311.064 178.711C307.784 172.152 306.144 164.773 306.144 156.574C306.144 147.438 307.784 139.649 311.064 133.206C314.46 126.764 319.087 121.904 324.944 118.624C330.8 115.227 337.418 113.529 344.797 113.529C352.059 113.529 358.618 114.993 364.475 117.921C370.331 120.849 374.958 125.007 378.354 130.395C381.751 135.666 383.449 141.757 383.449 148.668C383.449 150.893 383.332 153.411 383.098 156.222L382.747 159.736H329.863C329.863 170.863 331.561 179.004 334.958 184.158C338.355 189.194 343.099 191.712 349.189 191.712C354.811 191.712 359.497 190.483 363.245 188.023C367.11 185.446 370.8 181.815 374.313 177.13L379.76 181.171C376.363 186.442 372.088 190.834 366.934 194.348C361.898 197.862 355.104 199.619 346.554 199.619ZM359.731 151.83C359.731 140.82 358.442 133.031 355.866 128.463C353.289 123.778 349.599 121.435 344.797 121.435C340.346 121.435 336.715 123.836 333.904 128.638C331.21 133.324 329.863 141.054 329.863 151.83H359.731Z" fill="white"/>
<path d="M254.943 233C241.59 233 231.048 230.834 223.318 226.5C215.704 222.283 211.898 215.373 211.898 205.768C211.898 199.911 214.24 195.051 218.925 191.185C223.61 187.32 229.174 184.568 235.616 182.928C230.345 181.288 227.71 178.067 227.71 173.265C227.71 169.282 230.053 166.354 234.738 164.48C229.701 162.723 225.485 159.678 222.088 155.344C218.808 151.01 217.168 146.208 217.168 140.937C217.168 131.332 220.565 124.363 227.359 120.029C234.269 115.696 243.464 113.529 254.943 113.529H291.838V118.273L276.026 120.381C280.945 122.255 284.928 125.125 287.973 128.99C291.135 132.855 292.717 136.837 292.717 140.937C292.717 150.542 289.437 157.452 282.878 161.669C276.436 165.886 267.124 167.994 254.943 167.994C248.852 167.994 244.401 168.345 241.59 169.048C238.779 169.634 237.373 171.039 237.373 173.265C237.373 175.139 238.779 176.369 241.59 176.954C244.401 177.54 248.852 177.891 254.943 178.008C267.592 178.243 277.9 180.761 285.865 185.563C293.946 190.248 297.987 196.983 297.987 205.768C297.987 215.373 294.122 222.283 286.392 226.5C278.778 230.834 268.295 233 254.943 233ZM254.943 160.966C264.313 160.966 268.998 154.29 268.998 140.937C268.998 134.378 267.71 129.341 265.133 125.827C262.556 122.313 259.159 120.557 254.943 120.557C250.609 120.557 247.153 122.255 244.577 125.652C242.117 129.048 240.887 134.144 240.887 140.937C240.887 154.29 245.572 160.966 254.943 160.966ZM254.943 225.094C261.033 225.094 265.777 223.454 269.174 220.175C272.57 217.012 274.269 212.21 274.269 205.768C274.269 200.614 272.629 196.339 269.349 192.942C266.187 189.428 261.853 187.144 256.348 186.09L248.09 185.212C243.991 186.969 240.887 189.487 238.779 192.767C236.67 196.046 235.616 200.38 235.616 205.768C235.616 212.21 237.315 217.012 240.711 220.175C244.108 223.454 248.852 225.094 254.943 225.094Z" fill="white"/>
<path d="M556.35 93.3263C558.692 95.9031 561.972 97.1915 566.189 97.1915C569 97.1915 571.284 96.3131 573.041 94.5561C574.915 92.7992 575.852 90.3981 575.852 87.3527C575.852 83.6046 574.68 80.4421 572.338 77.8653C570.112 75.2884 566.891 74 562.675 74C559.864 74 557.521 74.8785 555.647 76.6354C553.89 78.3923 553.012 80.7935 553.012 83.8388C553.012 87.587 554.124 90.7495 556.35 93.3263Z" fill="white"/>
<path d="M162.243 123.145C159.961 117.625 157.525 113.879 154.935 111.908C152.409 109.783 148.873 109.661 144.327 111.54L142.704 112.212L140.69 107.341L156.764 100.695C160.444 99.1736 162.414 98.5987 165.973 98.5987C173.72 98.5093 179.914 105.983 182.948 113.444L220.556 198.589L205.042 198.589C198.229 198.589 192.082 194.497 189.453 188.212L162.243 123.145Z" fill="white"/>
<path d="M182.52 172.079H144.269L132.478 198.251H125L167.421 103.342C173.276 109.601 187.155 161.497 182.52 172.079ZM147.289 165.608H179.788L163.97 128.076L147.289 165.608Z" fill="white"/>
<path d="M799.695 197.461V175.981L779.663 141.146H787.386L802.51 168.177H803.637L818.761 141.146H826.484L806.452 175.981V197.461H799.695Z" fill="#FF5906"/>
<path d="M732.784 197.461L750.161 141.146H762.068L779.445 197.461H772.446L768.101 183.221H744.128L739.783 197.461H732.784ZM745.817 177.107H766.332L756.678 145.249H755.551L745.817 177.107Z" fill="#FF5906"/>
<path d="M690.231 197.461V141.146H711.791C715.17 141.146 718.174 141.817 720.802 143.158C723.483 144.445 725.602 146.295 727.157 148.709C728.712 151.122 729.49 154.045 729.49 157.478V158.524C729.49 161.902 728.686 164.825 727.077 167.292C725.521 169.706 723.403 171.556 720.721 172.843C718.039 174.131 715.063 174.774 711.791 174.774H696.989V197.461H690.231ZM696.989 168.66H711.067C714.661 168.66 717.503 167.775 719.595 166.005C721.686 164.182 722.732 161.634 722.732 158.363V157.558C722.732 154.287 721.686 151.766 719.595 149.996C717.557 148.172 714.714 147.261 711.067 147.261H696.989V168.66Z" fill="#FF5906"/>
</svg>
